X:1
T:Hear Us, O Savior!
T:Ira David Sankey
T:Hear Us, O Savior!
T:Public Domain
T:Public Domain
C:Ira David Sankey
Z:Public Domain
%%score ( 1 2 ) ( 3 4 )
L:1/8
M:6/8
K:D
V:1 treble 
V:2 treble 
V:3 bass 
V:4 bass 
V:1
 [FA]>[^E^G][FA] [=GB]2 [FA] | [FA]2 [EG] [EG]3 | [EG]>[^DF][EG] [FA]2 [CE] | [EG]3 [DF]3 | %4
w: 1.~Hear us, O Sav- ior,|when we pray,|Hum- bly our need con-|fess- ing;|
w: 2.~Know- ing Thy love, on|Thee we call,|Bold- ly Thy throne ad-|dress- ing;|
w: 3.~Trust- ing Thy Word that|can- not fail,|Mas- ter we claim Thy|prom- ise;|
 [DB]>[C^A][DB] [Gd]2 [GB] | [GB]2 [FA] [FA]3 | [EA]>[E^G][EA] [GB][Gc][Gd] | [Ac-]3 [Gc]2 z || %8
w: Grant us the prom- ised|show’rs to- day—|Send them up- on us, O|Lord! *|
w: Plead- ing that show’rs of|grace may fall—|Send them up- on us, O|Lord! *|
w: Oh that our faith may|now pre- vail—|Send us the show- ers, O|Lord! *|
"^Refrain" [Fd]3 [Ac]2 [GB] | [FA]3 [DF]3 | [EG]3 [Gc]2 [GB] | [GB]3 [FA]3 | [Ad]2 [Ac] (ed)[GB] | %13
w: |||||
w: |||||
w: |||||
 [FA]3 [Fd]3 | [Ec]2 [EA] [GB]2 [Gc] | [Fd]6 |] %16
w: |||
w: |||
w: |||
V:2
 x6 | x6 | x6 | x6 | x6 | x6 | x6 | x6 || x6 | x6 | x6 | x6 | x3 B2 x | x6 | x6 | x6 |] %16
V:3
 [D,D]>[D,D][D,D] [D,D]2 [D,D] | [A,C]2 [A,C] [A,C]3 | [A,,A,]>[A,,A,][A,,A,] [A,,A,]2 [A,,A,] | %3
w: ~ ~ ~ ~ ~|~ ~ ~|~ ~ ~ ~ ~|
 [D,A,]3 [D,A,]3 | G,>G,G, [G,B,]2 [G,D] | [D,D]2 [D,D] [D,D]3 | %6
w: ~ ~|~ ~ ~ ~ ~|~ ~ ~|
 [E,C]>[E,B,][E,C] [E,D][E,C][E,B,] | A,3- [A,,A,]2 z || [D,A,]3 [D,A,]2 [D,D] | [D,D]3 [D,A,]3 | %10
w: ~ ~ ~ ~ Send show’rs|of *|ing; Send show’rs|re- fresh-|
 [A,,A,]3 [A,,E]2 [A,,C] | [D,D]3 [D,D]3 | [D,D]2 [D,D] [G,D]2 [G,D] | [D,D]3 [D,A,]3 | %14
w: ing; Send show-|ers of|bless- ing; Send them,|Lord, we|
 A,2 [A,C] [A,E]2 [A,,A,] | [D,A,]6 |] %16
w: pray! * * *||
V:4
 x6 | x6 | x6 | x6 | G,>G,G, x3 | x6 | x6 | A,3 x3 || x6 | x6 | x6 | x6 | x6 | x6 | A,2 x4 | x6 |] %16
w: ||||~ ~ ~|||bless-|||||||||

